!!!OTL: Die Ochsentreiber Kommen
!!!ARE: Europa, Mitteleuropa, Deutschland
!!!SCT: A0465
!!!YEM: Copyright 1995, estate of Helmut Schaffrath.
**kern
*ICvox
*Ivox
*M4/4
*k[b-e-]
*g:
{2g
=1
4g
4a
4b-
4cc
=2
2dd
2a}
=3
{2dd
4cc
4a
=4
4b-
4b-
2a
=5
2.r}
{4g
=6
4a
4a
4g
4e
=7
4g
4a
4d
4a
=8
2d
4r}
{4fn
=9
4g
4g
4g
4e
=10
4.fn
8g
2a
=11
4d
4a
2d
=12
2.r}
{4d
=13
4fn
4fn
4g
4g
=14
2a
2g}
=15
{2dd
4cc
4a
=16
4b-
4a
2g}
=17
{8a
8b-
8cc
8dd
4b-
4g
=18
4a
4a
2g
=19
2r}
==
!!!AGN: Romanze, Ballade, Lied
!! Ott 1534 No. 4 und Ott III 1544 No. 44.
!!!ONB: ESAC (Essen Associative Code) Database: ALTDEU
!!!AMT: simple quadruple
!!!AIN: vox
!!!EED: Helmut Schaffrath
!!!EEV: 1.0
*-
